icons/square/48/sigram.svg

<?xml version="1.0" encoding="UTF-8" standalone="no"?>
<!-- Created with Inkscape (http://www.inkscape.org/) -->

<svg
   xmlns:dc="http://purl.org/dc/elements/1.1/"
   xmlns:cc="http://creativecommons.org/ns#"
   xmlns:rdf="http://www.w3.org/1999/02/22-rdf-syntax-ns#"
   xmlns:svg="http://www.w3.org/2000/svg"
   xmlns="http://www.w3.org/2000/svg"
   xmlns:xlink="http://www.w3.org/1999/xlink"
   xmlns:sodipodi="http://sodipodi.sourceforge.net/DTD/sodipodi-0.dtd"
   xmlns:inkscape="http://www.inkscape.org/namespaces/inkscape"
   width="48"
   height="48"
   id="svg2"
   version="1.1"
   inkscape:version="0.48.5 r10040"
   sodipodi:docname="gnome-schedule.svg"
   inkscape:export-filename="/home/me4oslav/Downloads/gimp-new-square.png"
   inkscape:export-xdpi="720"
   inkscape:export-ydpi="720">
  <defs
     id="defs4">
    <linearGradient
       id="linearGradient4069">
      <stop
         style="stop-color:#81b6d9;stop-opacity:1;"
         offset="0"
         id="stop4071" />
      <stop
         style="stop-color:#9ac9e8;stop-opacity:1;"
         offset="1"
         id="stop4073" />
    </linearGradient>
    <linearGradient
       y2="1"
       x2="0"
       y1="47"
       gradientTransform="translate(-46.000003,-1052.3642)"
       gradientUnits="userSpaceOnUse"
       id="1"
       xlink:href="#0" />
    <linearGradient
       id="0">
      <stop
         id="stop3004"
         stop-opacity="0" />
      <stop
         id="stop3006"
         offset="1" />
    </linearGradient>
    <linearGradient
       gradientUnits="userSpaceOnUse"
       x2="0"
       y2="40"
       y1="280"
       xlink:href="#2"
       id="3"
       gradientTransform="matrix(.175 0 0 .175 302.79999 215.99997)" />
    <linearGradient
       id="2">
      <stop
         id="stop73"
         stop-color="#151515" />
      <stop
         id="stop75"
         stop-color="#222"
         offset="1" />
    </linearGradient>
    <linearGradient
       gradientUnits="userSpaceOnUse"
       x2="0"
       y2="90"
       y1="230"
       xlink:href="#2"
       id="1-9"
       gradientTransform="matrix(.375 0 0 .375 298 16)" />
    <linearGradient
       gradientUnits="userSpaceOnUse"
       x2="0"
       y2="90"
       y1="230"
       xlink:href="#2"
       id="0-3"
       gradientTransform="matrix(.25 0 0 .25 299.99999 131.99999)" />
    <clipPath
       id="clipPath66">
      <rect
         id="rect68"
         color="#bebebe"
         height="20"
         rx="4"
         y="78"
         x="434"
         width="20" />
    </clipPath>
    <clipPath
       id="clipPath62">
      <rect
         id="rect64"
         color="#bebebe"
         height="22"
         rx="4"
         y="77"
         x="433"
         width="22" />
    </clipPath>
    <clipPath
       id="clipPath58">
      <rect
         id="rect60"
         color="#bebebe"
         height="22"
         rx="5"
         y="77"
         x="433"
         width="22" />
    </clipPath>
    <clipPath
       id="clipPath54">
      <rect
         id="rect56"
         color="#bebebe"
         height="30"
         rx="6"
         y="29"
         x="433"
         width="30" />
    </clipPath>
    <clipPath
       id="clipPath50">
      <rect
         style="fill:url(#0-3)"
         id="rect52"
         color="#bebebe"
         fill="url(#0)"
         transform="matrix(0 -1 1 0 0 0)"
         height="60"
         rx="12.5"
         y="142"
         x="306"
         width="60" />
    </clipPath>
    <clipPath
       id="clipPath46">
      <rect
         style="fill:url(#1-9)"
         id="rect48"
         color="#bebebe"
         fill="url(#1)"
         height="90"
         rx="18.75"
         y="31"
         x="307"
         width="90" />
    </clipPath>
    <clipPath
       id="clipPath42">
      <rect
         id="rect44"
         color="#bebebe"
         fill="#6d6d6d"
         opacity="0.2"
         height="30"
         rx="4"
         y="29"
         x="433"
         width="30" />
    </clipPath>
    <clipPath
       id="clipPath38">
      <rect
         id="rect40"
         color="#bebebe"
         fill="#6d6d6d"
         opacity="0.2"
         height="22"
         rx="3"
         y="77"
         x="433"
         width="22" />
    </clipPath>
    <clipPath
       id="clipPath34">
      <path
         id="path36"
         d="m 144,70 c -49.705627,0 -90,40.29437 -90,90 0,49.70563 40.294373,90 90,90 49.70563,0 90,-40.29437 90,-90 0,-49.70563 -40.29437,-90 -90,-90 z m 0,32.1875 c 32.03251,0 58,25.96748 58,58 0,32.03252 -25.96749,58 -58,58 -32.03251,0 -58,-25.96748 -58,-58 0,-32.03252 25.96749,-58 58,-58 z" />
    </clipPath>
    <clipPath
       id="clipPath30">
      <rect
         id="rect32"
         color="#bebebe"
         height="16"
         rx="3"
         y="116"
         x="432"
         width="16" />
    </clipPath>
    <clipPath
       id="clipPath26">
      <path
         id="path28"
         d="m 145,215 c 33.13708,0 60,-26.86292 60,-60 0,-33.13708 -26.86292,-60 -60,-60 -33.13708,0 -60,26.86292 -60,60 0,12.50698 3.8285,24.10633 10.375,33.71875 L 89,211 111.28125,204.625 C 120.89367,211.1715 132.49302,215 145,215 z" />
    </clipPath>
    <clipPath
       id="clipPath22">
      <path
         id="path24"
         d="m 152,204 a 8,8 0 1 1 -16,0 8,8 0 1 1 16,0 z" />
    </clipPath>
    <clipPath
       id="clipPath18">
      <path
         id="path20"
         d="m 98.03125,23.191212 c -41.492132,1.05238 -74.84375,35.06824 -74.84375,76.812498 0,42.40687 34.405632,76.8125 76.8125,76.8125 42.40687,0 76.8125,-34.40563 76.8125,-76.8125 0,-42.406866 -34.40563,-76.812498 -76.8125,-76.812498 -0.662607,0 -1.310145,-0.0167 -1.96875,0 z M 100,50.659962 c 27.24464,0 49.34375,22.099114 49.34375,49.343748 -1e-5,27.24464 -22.09911,49.34375 -49.34375,49.34375 -27.244636,-1e-5 -49.34375,-22.09911 -49.34375,-49.34375 0,-27.244634 22.099114,-49.343748 49.34375,-49.343748 z" />
    </clipPath>
    <clipPath
       id="clipPath14">
      <rect
         id="rect16"
         color="#bebebe"
         fill="#6d6d6d"
         opacity="0.2"
         height="16"
         rx="2"
         y="116"
         x="432"
         width="16" />
    </clipPath>
    <clipPath
       id="clipPath10">
      <rect
         id="rect12"
         color="#bebebe"
         fill="#986767"
         height="240"
         rx="50"
         y="36"
         x="24"
         width="240" />
    </clipPath>
    <clipPath
       id="clipPath6">
      <rect
         id="rect8"
         color="#bebebe"
         fill="url(#3)"
         transform="rotate(90)"
         height="42"
         rx="9"
         y="223"
         x="307"
         width="42" />
    </clipPath>
    <linearGradient
       inkscape:collect="always"
       xlink:href="#linearGradient3672"
       id="linearGradient4109"
       gradientUnits="userSpaceOnUse"
       x1="71.655853"
       y1="62.659943"
       x2="87.0625"
       y2="62.659943" />
    <linearGradient
       id="linearGradient3672">
      <stop
         id="stop3674"
         style="stop-color:#ffffff;stop-opacity:0"
         offset="0" />
      <stop
         id="stop3676"
         style="stop-color:#ffffff;stop-opacity:0"
         offset="0.30000001" />
      <stop
         id="stop3678"
         style="stop-color:#ffffff;stop-opacity:0.61240309"
         offset="0.5" />
      <stop
         id="stop3680"
         style="stop-color:#ffffff;stop-opacity:0"
         offset="0.75264549" />
      <stop
         id="stop3682"
         style="stop-color:#ffffff;stop-opacity:0"
         offset="1" />
    </linearGradient>
    <linearGradient
       id="linearGradient3216">
      <stop
         id="stop3218"
         offset="0"
         style="stop-color:#6b6b6b;stop-opacity:1;" />
      <stop
         id="stop3220"
         offset="1"
         style="stop-color:#000000;stop-opacity:1;" />
    </linearGradient>
    <linearGradient
       id="linearGradient10287">
      <stop
         id="stop10289"
         offset="0"
         style="stop-color:#e1e0e0;stop-opacity:1;" />
      <stop
         style="stop-color:#3d3d3d;stop-opacity:1;"
         offset="0.5"
         id="stop4127" />
      <stop
         id="stop10291"
         offset="1"
         style="stop-color:#828282;stop-opacity:1;" />
    </linearGradient>
    <linearGradient
       id="linearGradient10279">
      <stop
         id="stop10281"
         offset="0"
         style="stop-color:#19140c;stop-opacity:1;" />
      <stop
         style="stop-color:#795d3b;stop-opacity:1;"
         offset="0.5"
         id="stop4148" />
      <stop
         id="stop10283"
         offset="1"
         style="stop-color:#9c794c;stop-opacity:1;" />
    </linearGradient>
    <linearGradient
       inkscape:collect="always"
       xlink:href="#linearGradient4990"
       id="linearGradient4092"
       gradientUnits="userSpaceOnUse"
       gradientTransform="matrix(0.1338217,-0.05496597,0.0513395,0.14327442,12.593293,0.203942)"
       x1="202.59236"
       y1="424.37561"
       x2="188.0419"
       y2="371.45074" />
    <linearGradient
       id="linearGradient4990">
      <stop
         style="stop-color:#808080;stop-opacity:1;"
         offset="0"
         id="stop4992" />
      <stop
         style="stop-color:#000000;stop-opacity:0;"
         offset="1"
         id="stop4994" />
    </linearGradient>
    <linearGradient
       id="linearGradient4121">
      <stop
         style="stop-color:#2a2115;stop-opacity:1;"
         offset="0"
         id="stop4123" />
      <stop
         style="stop-color:#653c2e;stop-opacity:1;"
         offset="1"
         id="stop4125" />
    </linearGradient>
    <linearGradient
       id="linearGradient3387">
      <stop
         id="stop3389"
         offset="0"
         style="stop-color:#6b6b6b;stop-opacity:1;" />
      <stop
         id="stop3391"
         offset="1"
         style="stop-color:#000000;stop-opacity:1;" />
    </linearGradient>
    <linearGradient
       id="linearGradient3394">
      <stop
         id="stop3396"
         offset="0"
         style="stop-color:#6b6b6b;stop-opacity:1;" />
      <stop
         id="stop3398"
         offset="1"
         style="stop-color:#000000;stop-opacity:1;" />
    </linearGradient>
    <linearGradient
       id="linearGradient3200">
      <stop
         id="stop3202"
         offset="0"
         style="stop-color:#fefefe;stop-opacity:1;" />
      <stop
         id="stop3204"
         offset="1"
         style="stop-color:#e2e2e2;stop-opacity:1;" />
    </linearGradient>
    <linearGradient
       id="linearGradient3407">
      <stop
         id="stop3409"
         offset="0"
         style="stop-color:#fefefe;stop-opacity:1;" />
      <stop
         id="stop3411"
         offset="1"
         style="stop-color:#e2e2e2;stop-opacity:1;" />
    </linearGradient>
    <linearGradient
       id="linearGradient3418">
      <stop
         id="stop3420"
         offset="0"
         style="stop-color:#6b6b6b;stop-opacity:1;" />
      <stop
         id="stop3422"
         offset="1"
         style="stop-color:#000000;stop-opacity:1;" />
    </linearGradient>
    <linearGradient
       inkscape:collect="always"
       xlink:href="#linearGradient3176"
       id="linearGradient4107"
       gradientUnits="userSpaceOnUse"
       gradientTransform="matrix(0.17036306,0,0,0.17036306,-15.617277,-18.085899)"
       x1="325.53677"
       y1="295.21344"
       x2="441.54199"
       y2="414.01898" />
    <linearGradient
       id="linearGradient3176">
      <stop
         id="stop3178"
         offset="0"
         style="stop-color:#a77341;stop-opacity:1;" />
      <stop
         id="stop3180"
         offset="1"
         style="stop-color:#3d3024;stop-opacity:1;" />
    </linearGradient>
    <linearGradient
       inkscape:collect="always"
       xlink:href="#linearGradient4069-7"
       id="linearGradient4075"
       x1="24"
       y1="1051.36"
       x2="24"
       y2="1005.36"
       gradientUnits="userSpaceOnUse" />
    <clipPath
       id="clipPath-140714373">
      <g
         transform="translate(0,-1004.3622)"
         id="g17">
        <path
           style="fill:#1890d0"
           inkscape:connector-curvature="0"
           d="m -24,13 c 0,1.105 -0.672,2 -1.5,2 -0.828,0 -1.5,-0.895 -1.5,-2 0,-1.105 0.672,-2 1.5,-2 0.828,0 1.5,0.895 1.5,2 z"
           transform="matrix(15.333333,0,0,11.5,414.99999,878.8622)"
           id="path19" />
      </g>
    </clipPath>
    <linearGradient
       inkscape:collect="always"
       xlink:href="#linearGradient3798-7"
       id="linearGradient4033"
       x1="-27"
       y1="13"
       x2="-24"
       y2="13"
       gradientUnits="userSpaceOnUse" />
    <linearGradient
       id="linearGradient3798-7">
      <stop
         style="stop-color:#ede9ce;stop-opacity:1;"
         offset="0"
         id="stop3800-5" />
      <stop
         style="stop-color:#f5f2de;stop-opacity:1;"
         offset="1"
         id="stop3802-3" />
    </linearGradient>
    <linearGradient
       inkscape:collect="always"
       xlink:href="#linearGradient4019"
       id="linearGradient4147"
       x1="-27"
       y1="13"
       x2="-24"
       y2="13"
       gradientUnits="userSpaceOnUse" />
    <linearGradient
       id="linearGradient4019">
      <stop
         style="stop-color:#dddddd;stop-opacity:1;"
         offset="0"
         id="stop4021" />
      <stop
         style="stop-color:#e7e7e7;stop-opacity:1;"
         offset="1"
         id="stop4024" />
    </linearGradient>
    <linearGradient
       y2="13"
       x2="-24"
       y1="13"
       x1="-27"
       gradientUnits="userSpaceOnUse"
       id="linearGradient4248"
       xlink:href="#linearGradient4019"
       inkscape:collect="always" />
    <linearGradient
       y2="160"
       x2="160"
       y1="120"
       x1="135"
       gradientTransform="matrix(0.05622958,0,0,0.05622958,0.07160145,-0.0527796)"
       gradientUnits="userSpaceOnUse"
       id="linearGradient3102"
       xlink:href="#4-7"
       inkscape:collect="always" />
    <linearGradient
       id="4-7">
      <stop
         stop-color="#eff7fc"
         id="stop67" />
      <stop
         offset="1"
         stop-color="#ffffff"
         id="stop69" />
    </linearGradient>
    <linearGradient
       inkscape:collect="always"
       xlink:href="#linearGradient4069-7"
       id="linearGradient4153"
       x1="-27"
       y1="13"
       x2="-24"
       y2="13"
       gradientUnits="userSpaceOnUse" />
    <linearGradient
       id="linearGradient4069-7">
      <stop
         style="stop-color:#37aee2;stop-opacity:1;"
         offset="0"
         id="stop4071-0" />
      <stop
         style="stop-color:#51c3f4;stop-opacity:1;"
         offset="1"
         id="stop4073-5" />
    </linearGradient>
    <linearGradient
       y2="13"
       x2="-24"
       y1="13"
       x1="-27"
       gradientUnits="userSpaceOnUse"
       id="linearGradient4263"
       xlink:href="#linearGradient4069-7"
       inkscape:collect="always" />
  </defs>
  <sodipodi:namedview
     id="base"
     pagecolor="#ffffff"
     bordercolor="#666666"
     borderopacity="1.0"
     inkscape:pageopacity="0.0"
     inkscape:pageshadow="2"
     inkscape:zoom="10.9766"
     inkscape:cx="27.023123"
     inkscape:cy="14.104586"
     inkscape:document-units="px"
     inkscape:current-layer="layer1"
     showgrid="true"
     inkscape:window-width="1920"
     inkscape:window-height="1052"
     inkscape:window-x="0"
     inkscape:window-y="28"
     inkscape:window-maximized="1">
    <inkscape:grid
       type="xygrid"
       id="grid3933"
       empspacing="5"
       visible="true"
       enabled="true"
       snapvisiblegridlinesonly="true" />
  </sodipodi:namedview>
  <metadata
     id="metadata7">
    <rdf:RDF>
      <cc:Work
         rdf:about="">
        <dc:format>image/svg+xml</dc:format>
        <dc:type
           rdf:resource="http://purl.org/dc/dcmitype/StillImage" />
        <dc:title></dc:title>
      </cc:Work>
    </rdf:RDF>
  </metadata>
  <g
     inkscape:groupmode="layer"
     id="layer3"
     inkscape:label="Shadow"
     sodipodi:insensitive="true">
    <g
       transform="translate(0,-1004.3622)"
       id="g3804">
      <path
         id="path3806"
         d="m 5,1006.3622 c -2.216,0 -4,1.784 -4,4 l 0,37.25 c 0,2.216 1.784,4 4,4 l 38,0 c 2.216,0 4,-1.784 4,-4 l 0,-37.25 c 0,-2.216 -1.784,-4 -4,-4 l -38,0 z m -4,41.5 0,0.5 c 0,2.216 1.784,4 4,4 l 38,0 c 2.216,0 4,-1.784 4,-4 l 0,-0.5 c 0,2.216 -1.784,4 -4,4 l -38,0 c -2.216,0 -4,-1.784 -4,-4 z"
         inkscape:connector-curvature="0"
         style="opacity:0.02000002" />
      <path
         id="path3808"
         d="m 1,1047.6122 0,0.25 c 0,2.216 1.784,4 4,4 l 38,0 c 2.216,0 4,-1.784 4,-4 l 0,-0.25 c 0,2.216 -1.784,4 -4,4 l -38,0 c -2.216,0 -4,-1.784 -4,-4 z"
         inkscape:connector-curvature="0"
         style="opacity:0.05" />
      <rect
         id="rect3810"
         rx="4"
         y="1005.61"
         x="1"
         height="46"
         width="46"
         style="opacity:0.1" />
    </g>
  </g>
  <g
     inkscape:label="Background"
     inkscape:groupmode="layer"
     id="layer1"
     transform="translate(0,-1004.3622)">
    <g
       id="g2987"
       transform="translate(0,0.00221465)"
       style="fill:url(#linearGradient4075);fill-opacity:1.0">
      <rect
         id="rect2989"
         width="46"
         height="46"
         x="1"
         y="1005.36"
         rx="4"
         style="fill:url(#linearGradient4075);fill-opacity:1.0" />
    </g>
    <g
       id="g3790">
      <path
         id="path3792"
         d="m 1,1043.3622 0,4 c 0,2.216 1.784,4 4,4 l 38,0 c 2.216,0 4,-1.784 4,-4 l 0,-4 c 0,2.216 -1.784,4 -4,4 l -38,0 c -2.216,0 -4,-1.784 -4,-4 z"
         inkscape:connector-curvature="0"
         style="opacity:0.1" />
    </g>
  </g>
  <g
     inkscape:groupmode="layer"
     id="layer2"
     inkscape:label="Symbol">
    <g
       transform="matrix(3.543307,0,0,3.543307,-0.99999987,-1.0000008)"
       id="g4218"
       style="opacity:0.1;fill:#000000;fill-opacity:1">
      <path
         id="path4220"
         d="m 5.5821004,9.7873968 c -0.2186006,0 -0.1814527,-0.08254 -0.2568453,-0.290678 L 4.6819505,7.3809617 8.6632908,4.8935174 9.1278995,5.0150305 8.7419171,6.0729093 z"
         inkscape:connector-curvature="0"
         style="fill:#000000;fill-opacity:1" />
      <path
         id="path4222"
         d="m 5.5821004,9.7873968 c 0.1686887,0 0.2434679,-0.07689 0.3373774,-0.168689 C 6.0644574,9.4769908 7.9437428,7.650673 7.9437428,7.650673 L 6.7926147,7.3720493 5.7242527,8.0468043 5.5821004,9.7311668 z"
         inkscape:connector-curvature="0"
         style="fill:#000000;fill-opacity:1" />
      <path
         id="path4224"
         d="m 5.6969419,8.0671532 2.7192722,2.0090178 c 0.3103035,0.171212 0.5342597,0.08257 0.6115675,-0.2880942 L 10.134669,4.5720625 C 10.247995,4.1177148 9.9614767,3.9116351 9.6646205,4.0464176 L 3.1648194,6.5533393 C 2.7211634,6.731289 2.7237485,6.9788071 3.0839509,7.089093 L 4.7518626,7.6096833 8.6133308,5.1735215 c 0.182289,-0.1105407 0.3495945,-0.051112 0.2122796,0.07076 z"
         inkscape:connector-curvature="0"
         style="fill:#000000;fill-opacity:1" />
    </g>
    <g
       transform="matrix(3.543307,0,0,3.543307,-0.99999987,-2.0000008)"
       id="g82">
      <path
         style="fill:#c8daea"
         inkscape:connector-curvature="0"
         d="m 5.5821004,9.7873968 c -0.2186006,0 -0.1814527,-0.08254 -0.2568453,-0.290678 L 4.6819505,7.3809617 8.6632908,4.8935174 9.1278995,5.0150305 8.7419171,6.0729093 z"
         id="path84" />
      <path
         style="fill:#a7c2d1"
         inkscape:connector-curvature="0"
         d="m 5.5821004,9.7873968 c 0.1686887,0 0.2434679,-0.07689 0.3373774,-0.168689 C 6.0644574,9.4769908 7.9437428,7.650673 7.9437428,7.650673 L 6.7926147,7.3720493 5.7242527,8.0468043 5.5821004,9.7311668 z"
         id="path86" />
      <path
         style="fill:url(#linearGradient3102)"
         inkscape:connector-curvature="0"
         d="m 5.6969419,8.0671532 2.7192722,2.0090178 c 0.3103035,0.171212 0.5342597,0.08257 0.6115675,-0.2880942 L 10.134669,4.5720625 C 10.247995,4.1177148 9.9614767,3.9116351 9.6646205,4.0464176 L 3.1648194,6.5533393 C 2.7211634,6.731289 2.7237485,6.9788071 3.0839509,7.089093 L 4.7518626,7.6096833 8.6133308,5.1735215 c 0.182289,-0.1105407 0.3495945,-0.051112 0.2122796,0.07076 z"
         id="path88" />
    </g>
  </g>
</svg>

<?xml version="1.0" encoding="UTF-8"?>
<svg width="48" height="48" version="1.1" xmlns="http://www.w3.org/2000/svg" xmlns:cc="http://creativecommons.org/ns#" xmlns:dc="http://purl.org/dc/elements/1.1/" xmlns:rdf="http://www.w3.org/1999/02/22-rdf-syntax-ns#" xmlns:xlink="http://www.w3.org/1999/xlink">
 <defs>
  <linearGradient id="linearGradient4075" x1="24" x2="24" y1="1051.4" y2="1005.4" gradientUnits="userSpaceOnUse">
   <stop stop-color="#37aee2" offset="0"/>
   <stop stop-color="#51c3f4" offset="1"/>
  </linearGradient>
  <linearGradient id="linearGradient3102" x1="135" x2="160" y1="120" y2="160" gradientTransform="matrix(.05623 0 0 .05623 .071601 -.05278)" gradientUnits="userSpaceOnUse">
   <stop stop-color="#eff7fc" offset="0"/>
   <stop stop-color="#fff" offset="1"/>
  </linearGradient>
 </defs>
 <metadata>
  <rdf:RDF>
   <cc:Work rdf:about="">
    <dc:format>image/svg+xml</dc:format>
    <dc:type rdf:resource="http://purl.org/dc/dcmitype/StillImage"/>
    <dc:title/>
   </cc:Work>
  </rdf:RDF>
 </metadata>
 <g transform="translate(0 -1004.4)">
  <path d="m5 1006.4c-2.216 0-4 1.784-4 4v37.25c0 2.216 1.784 4 4 4h38c2.216 0 4-1.784 4-4v-37.25c0-2.216-1.784-4-4-4h-38zm-4 41.5v0.5c0 2.216 1.784 4 4 4h38c2.216 0 4-1.784 4-4v-0.5c0 2.216-1.784 4-4 4h-38c-2.216 0-4-1.784-4-4z" opacity=".02"/>
  <path d="m1 1047.6v0.25c0 2.216 1.784 4 4 4h38c2.216 0 4-1.784 4-4v-0.25c0 2.216-1.784 4-4 4h-38c-2.216 0-4-1.784-4-4z" opacity=".05"/>
  <rect x="1" y="1005.6" width="46" height="46" rx="4" opacity=".1"/>
 </g>
 <g transform="translate(0 -1004.4)">
  <g transform="translate(0 .0022146)" fill="url(#linearGradient4075)">
   <rect x="1" y="1005.4" width="46" height="46" rx="4" fill="url(#linearGradient4075)"/>
  </g>
  <path d="m1 1043.4v4c0 2.216 1.784 4 4 4h38c2.216 0 4-1.784 4-4v-4c0 2.216-1.784 4-4 4h-38c-2.216 0-4-1.784-4-4z" opacity=".1"/>
 </g>
 <g transform="matrix(3.5433 0 0 3.5433 -1 -1)" opacity=".1">
  <path d="m5.5821 9.7874c-0.2186 0-0.18145-0.08254-0.25685-0.29068l-0.6433-2.1158 3.9813-2.4874 0.46461 0.12151-0.38598 1.0579z"/>
  <path d="m5.5821 9.7874c0.16869 0 0.24347-0.07689 0.33738-0.16869 0.14498-0.14172 2.0243-1.968 2.0243-1.968l-1.1511-0.27862-1.0684 0.67476-0.14215 1.6844z"/>
  <path d="m5.6969 8.0672 2.7193 2.009c0.3103 0.17121 0.53426 0.08257 0.61157-0.28809l1.1069-5.216c0.11333-0.45435-0.17319-0.66043-0.47005-0.52564l-6.4998 2.5069c-0.44366 0.17795-0.44107 0.42547-0.080868 0.53575l1.6679 0.52059 3.8615-2.4362c0.18229-0.11054 0.34959-0.051112 0.21228 0.07076z"/>
 </g>
 <g transform="matrix(3.5433 0 0 3.5433 -1 -2)">
  <path d="m5.5821 9.7874c-0.2186 0-0.18145-0.08254-0.25685-0.29068l-0.6433-2.1158 3.9813-2.4874 0.46461 0.12151-0.38598 1.0579z" fill="#c8daea"/>
  <path d="m5.5821 9.7874c0.16869 0 0.24347-0.07689 0.33738-0.16869 0.14498-0.14172 2.0243-1.968 2.0243-1.968l-1.1511-0.27862-1.0684 0.67476-0.14215 1.6844z" fill="#a7c2d1"/>
  <path d="m5.6969 8.0672 2.7193 2.009c0.3103 0.17121 0.53426 0.08257 0.61157-0.28809l1.1069-5.216c0.11333-0.45435-0.17319-0.66043-0.47005-0.52564l-6.4998 2.5069c-0.44366 0.17795-0.44107 0.42547-0.080868 0.53575l1.6679 0.52059 3.8615-2.4362c0.18229-0.11054 0.34959-0.051112 0.21228 0.07076z" fill="url(#linearGradient3102)"/>
 </g>
</svg>
